X: 1414
T: Mümkün mü Unutmak Güzelim
C: Râkım Elkutlu
O: Turkey
F: http://compmusic.upf.edu/node/140
N: nihavent--sarki--aksak--mumkun_mu--rakim_elkutlu
N: makam= nihavent
N: form= sarki
N: usul= aksak = 9/8
M: 9/8
L: 1/16
K: C _B _e  
Q: 1/4=120
%%MIDI tuningsystem comma53
g3d d2b2 (3bag(3fed d4 z2 | B3AAG G^FG2 B2d2 B2G2  | 
w:  Müm *  kün  *  mü  *  *  u *  *  nut  |  mak  *  gü *  ze *  lim  SAZ  | 
c3d d2d2 d3c agfe dc | g8gf gaf2 e2d2  | \
w:  ney *  di  o  ak  |  şam   | 
c4 baag g2f2 (3bagfe ed | 
w:  ney di  *  o  *  ak  | 
d6 cdeg fedc BAG2  | g3d d2b2 (3bag(3fed d4 z2 | 
w:  şam   SAZ  |  Müm *  kün  *  mü  *  *  u *  *  nut  | 
B3AAG G^FG2 B2d2 B2G2  | c3d d2d2 d3c agfe dc | 
w:  mak  *  gü *  ze *  lim  SAZ  |  ney *  di  o  ak  | 
g8gf gaf2 e2d2  | c4 baag g2f2 (3bagfe ed | 
w:  şam   |  ney di  *  o  *  ak  | 
d6 cde3/2d/ efg4z2  | g4 e4 dcc2 ^F/G/F/G/A/B/A/B/ c2 | 
w:  şam   SAZ  |  Rû ya  gi *  bi  SAZ  | 
e3dc3BBA A2D/E/D/E/ ^F/G/F/G/A2  | \
w:  hül *  ya  *  gi *  bi  SAZ  | 
G3A B3A A2AG B4 AG | 
w:  bir *  şey *  di  o  *  ak  | 
d6 cde/f/e dcB2 A2G2  | A3c B2A2 A2AG B4 AG | 
w:  şam    |  bir *  şey *  di  o  *  ak  | 
G6 cded efg4z2  | g4 e4 dcc2 ^F/G/F/G/A/B/A/B/ c2 | 
w:  şam    |  Rû ya  gi *  bi  SAZ  | 
e3dc3BBA A2D/E/D/E/ ^F/G/F/G/A2  | \
w:  hül *  ya  *  gi *  bi  SAZ  | 
G3A B3A A2AG B4 AG | 
w:  bir *  şey *  di  o  *  ak  | 
d6 cde/f/e dcB2 A2G2  | A3c B2A2 A2AG B4 AG | 
w:  şam    |  bir *  şey *  di  o  *  ak  | 
z6 | G12 | d6  | ^f6 | ^f4g2  | a6 | d4d2  | d2e4 | ^f4g2  | \
w:  |  şam    |  İç  |  tik   |  ka na  |  rak   |  bir_ e  |  ze lî   |  mey di   | 
a2^fe d2 | b6  | b6 | a3c'b2  | 
w:  o  ak  |  şam    |   |  mey *  di   | 
a2a2 g2 | d'c' bag^f  | g6 | cd ede^f  | g4 z2 | z18 | \
w:  o  ak  |   |  şam    |   |   |  | 
g4e4dc c2^F/G/F/G/ A/B/A/B/c2  | 
w:  Rû ya  gi *  bi  SAZ  | 
e3d c3B BAA2 D/E/D/E/^F/G/F/G/ A2 | \
w:  hül *  ya  *  gi *  bi  SAZ  | 
G3AB3AA2 AGB4AG  | 
w:  bir *  şey *  di  o  *  ak  | 
d6cd e/f/edc B2A2 G2 | A3cB2 A2A2 AGB4AG  | 
w:  şam    |  bir *  şey *  di  o  *  ak  | 
G6|
w:  şam    | 


